img/svg/arr-link.svg

<svg width="12" height="10" viewBox="0 0 12 10" fill="none" xmlns="http://www.w3.org/2000/svg">
<path d="M1 4C0.447715 4 0 4.44772 0 5C0 5.55228 0.447715 6 1 6V4ZM11 5L11.7071 5.70711C12.0976 5.31658 12.0976 4.68342 11.7071 4.29289L11 5ZM7.70711 0.292893C7.31658 -0.0976311 6.68342 -0.0976311 6.29289 0.292893C5.90237 0.683417 5.90237 1.31658 6.29289 1.70711L7.70711 0.292893ZM6.29289 8.29289C5.90237 8.68342 5.90237 9.31658 6.29289 9.70711C6.68342 10.0976 7.31658 10.0976 7.70711 9.70711L6.29289 8.29289ZM1 6H11V4H1V6ZM11.7071 4.29289L7.70711 0.292893L6.29289 1.70711L10.2929 5.70711L11.7071 4.29289ZM10.2929 4.29289L6.29289 8.29289L7.70711 9.70711L11.7071 5.70711L10.2929 4.29289Z" fill="#FF7D7D"/>
</svg>

<svg xmlns="http://www.w3.org/2000/svg" width="12" height="10" fill="none" ><path d="M1 4a1 1 0 1 0 0 2V4zm10 1l.707.707a1 1 0 0 0 0-1.414L11 5zM7.707.293a1 1 0 1 0-1.414 1.414L7.707.293zm-1.414 8a1 1 0 1 0 1.414 1.414L6.293 8.293zM1 6h10V4H1v2zm10.707-1.707l-4-4-1.414 1.414 4 4 1.414-1.414zm-1.414 0l-4 4 1.414 1.414 4-4-1.414-1.414z" fill="#ff7d7d"/></svg>
